src/assets/icons/safew-logo-icon.svg

<?xml version="1.0" encoding="UTF-8" standalone="no"?>
<!-- Svg Vector Icons : http://www.onlinewebfonts.com/icon -->

<svg
   version="1.1"
   x="0px"
   y="0px"
   viewBox="0 0 27.999996 27.999996"
   enable-background="new 0 0 1000 1000"
   xml:space="preserve"
   id="svg8"
   sodipodi:docname="safew_icon_pink.svg"
   width="27.999996"
   height="27.999996"
   inkscape:version="1.1.1 (3bf5ae0d25, 2021-09-20)"
   inkscape:export-filename="C:\Users\thier\Ergo\SAFEW\safew_icon_16.png"
   inkscape:export-xdpi="1.7910448"
   inkscape:export-ydpi="1.7910448"
   xmlns:inkscape="http://www.inkscape.org/namespaces/inkscape"
   xmlns:sodipodi="http://sodipodi.sourceforge.net/DTD/sodipodi-0.dtd"
   xmlns="http://www.w3.org/2000/svg"
   xmlns:svg="http://www.w3.org/2000/svg"><defs
   id="defs12" /><sodipodi:namedview
   id="namedview10"
   pagecolor="#ffffff"
   bordercolor="#666666"
   borderopacity="1.0"
   inkscape:pageshadow="2"
   inkscape:pageopacity="0.0"
   inkscape:pagecheckerboard="0"
   showgrid="false"
   fit-margin-top="0"
   fit-margin-left="0"
   fit-margin-right="0"
   fit-margin-bottom="0"
   inkscape:zoom="1.66"
   inkscape:cx="220.78313"
   inkscape:cy="146.08434"
   inkscape:window-width="1920"
   inkscape:window-height="1017"
   inkscape:window-x="1912"
   inkscape:window-y="-8"
   inkscape:window-maximized="1"
   inkscape:current-layer="svg8" />
<metadata
   id="metadata2"> Svg Vector Icons : http://www.onlinewebfonts.com/icon </metadata>
<g
   id="g6"
   transform="matrix(0.02856851,0,0,0.03264925,-0.2856851,-2.3246266)"
   style="fill:#333333"
   inkscape:export-filename="C:\Users\thier\Ergo\SAFEW\public\images\safew_icon_128.png"
   inkscape:export-xdpi="12.538775"
   inkscape:export-ydpi="12.538775"><path
     d="M 928.3,500 V 380.4 c 0,-68.2 -55.1,-124.1 -123,-125.3 V 194.5 C 805.3,126.7 748.9,71.2 679.9,71.2 H 135.4 C 66.4,71.2 10,126.6 10,194.4 c 0,0.6 0,1.2 0,1.8 v 0 607.2 c 0,68.9 56.4,125.4 125.4,125.4 H 803 c 68.9,0 125.4,-56.4 125.4,-125.4 V 683.5 c 34,-0.5 61.7,-28.5 61.7,-62.7 v -58.3 c -0.1,-34 -27.8,-62 -61.8,-62.5 z m -1,120.8 c 0,0 -0.1,0.1 -0.1,0.1 H 746.1 c 0,0 -0.1,-0.1 -0.1,-0.1 v -58 c 0,0 0.1,-0.1 0.1,-0.1 h 181.1 c 0,0 0.1,0.1 0.1,0.1 z M 90.8,152.1 c 12,-11.8 27.8,-18.2 44.6,-18.2 h 544.4 c 16.8,0 32.7,6.5 44.6,18.2 11.7,11.5 18.1,26.5 18.1,42.4 V 255 H 135.4 c -16.8,0 -32.7,-6.5 -44.6,-18.2 -11.7,-11.5 -18.1,-26.5 -18.1,-42.4 0,-15.8 6.4,-30.9 18.1,-42.3 z m 756.4,695.6 c -11.9,11.9 -27.6,18.5 -44.2,18.5 H 135.4 c -16.6,0 -32.3,-6.6 -44.2,-18.5 C 79.3,835.8 72.7,820.1 72.7,803.5 V 301.1 c 18.5,10.6 39.9,16.6 62.7,16.6 v 0 h 0.1 c 0,0 0,0 0,0 H 679.9 803 c 16.6,0 32.3,6.6 44.2,18.5 11.9,11.9 18.5,27.6 18.5,44.2 V 500 H 746 c -34.5,0 -62.7,28.2 -62.7,62.7 V 621 c 0,34.5 28.2,62.7 62.7,62.7 h 119.7 v 119.9 c -0.1,16.5 -6.6,32.2 -18.5,44.1 z"
     id="path4"
     style="fill:#333333" /></g>
<style
   type="text/css"
   id="style829">
	.st0{fill-rule:evenodd;clip-rule:evenodd;}
</style><g
   id="main"
   transform="matrix(0.27835987,0,0,0.27862642,2.3263196,8.9145056)"
   style="fill:#333333"
   inkscape:export-filename="C:\Users\thier\Ergo\SAFEW\public\images\safew_icon_128.png"
   inkscape:export-xdpi="12.538775"
   inkscape:export-ydpi="12.538775">
	<g
   id="Group-16"
   transform="translate(-70,-35)"
   style="fill:#333333">
		<g
   transform="translate(70,34)"
   id="g838"
   style="fill:#333333">
			<g
   id="Group-15"
   transform="translate(0,0.83028)"
   style="fill:#333333">
				<path
   id="Fill-9"
   class="st0"
   d="M 11.2,47.8 29.5,55.2 47.7,47.4 55,29.1 47.2,10.9 28.9,3.6 10.7,11.4 3.4,29.7 Z m 18.3,10.8 c -0.2,0 -0.4,0 -0.6,-0.1 L 9.3,50.6 C 8.9,50.4 8.6,50.1 8.4,49.7 L 0.1,30.3 C -0.1,29.9 -0.1,29.5 0.1,29 L 8,9.5 C 8.2,9.1 8.5,8.8 8.9,8.6 L 28.3,0.3 c 0.4,-0.2 0.8,-0.2 1.3,0 L 49.2,8.2 C 49.5,8.3 49.8,8.6 50,9 l 8.3,19.4 c 0.2,0.4 0.2,0.8 0,1.3 l -7.9,19.6 c -0.2,0.4 -0.5,0.7 -0.9,0.9 l -19.4,8.3 c -0.1,0.1 -0.4,0.1 -0.6,0.1 z"
   style="fill:#333333" />
				<polygon
   id="Fill-10"
   class="st0"
   points="28.3,29.1 20.5,21 20.5,17.3 38,17.3 38,21 25.8,21 33.4,29.1 25.6,37.7 38,37.7 38,41.5 20.5,41.5 20.5,37.7 "
   style="fill:#333333" />
			</g>
		</g>
	</g>
</g><path
   style="fill:#ffaaaa;stroke-width:0.0343388"
   d="M 3.1724946,25.877572 C 2.7195523,25.752222 2.2735176,25.361405 2.0483435,24.89259 1.7837783,24.341762 1.8027007,25.041224 1.8027007,15.81246 c 0,-4.544781 0.011589,-8.2579761 0.025753,-8.2515447 0.014164,0.00643 0.1222836,0.062007 0.2402655,0.1235006 0.252642,0.1316805 0.4908826,0.22307 0.7984336,0.3062803 0.2098194,0.056768 0.8197863,0.061469 10.1809662,0.078458 l 9.957775,0.018071 0.196572,0.07941 c 0.429223,0.1733937 0.797215,0.5354751 1.012267,0.9960068 0.208593,0.4467038 0.216153,0.5443132 0.216153,2.790929 v 2.023078 h -1.766673 c -1.157116,0 -1.829455,0.01309 -1.948634,0.03795 -0.706472,0.147341 -1.313689,0.813354 -1.452615,1.593269 -0.06901,0.387413 -0.06901,2.394106 0,2.78152 0.138926,0.779915 0.746143,1.445928 1.452615,1.593268 0.119179,0.02486 0.791518,0.03795 1.948634,0.03795 h 1.766673 v 2.023078 c 0,2.297475 -0.0059,2.366991 -0.243317,2.848581 -0.192409,0.390356 -0.497785,0.7002 -0.870856,0.883601 l -0.272913,0.134163 -9.856548,0.0057 c -7.8965268,0.0045 -9.8880085,-0.003 -10.0147574,-0.03812 z M 13.401696,24.034088 c 1.503994,-0.644576 2.762956,-1.189304 2.797692,-1.210508 0.03474,-0.0212 0.09157,-0.08491 0.126298,-0.141574 0.128732,-0.210035 2.276028,-5.598215 2.278624,-5.71772 0.003,-0.140358 -2.341731,-5.655265 -2.443694,-5.747549 -0.08227,-0.07447 -5.58542,-2.2924849 -5.739024,-2.3130894 -0.100981,-0.013546 -0.5712926,0.176624 -2.9017893,1.1733364 -1.9392244,0.829372 -2.8090862,1.217678 -2.8731343,1.282564 -0.1237156,0.125336 -2.3438855,5.600794 -2.3422115,5.776442 7.594e-4,0.07965 0.3925412,1.035373 1.1613763,2.833104 0.6381269,1.492101 1.1885204,2.759272 1.2230966,2.815934 0.034576,0.05666 0.09851,0.124949 0.1420747,0.15175 0.043565,0.0268 1.3153463,0.547891 2.8261813,1.157979 1.9093817,0.771025 2.7870692,1.109562 2.8784732,1.110269 0.09787,7.6e-4 0.830745,-0.298661 2.866037,-1.170938 z"
   id="path1212"
   inkscape:export-filename="C:\Users\thier\Ergo\SAFEW\public\images\safew_icon_128.png"
   inkscape:export-xdpi="12.538775"
   inkscape:export-ydpi="12.538775" /><path
   style="fill:#ffaaaa;stroke-width:0.0343388"
   d="m 21.031508,16.998627 v -0.927198 h 2.575287 2.575286 v 0.927198 0.927198 h -2.575286 -2.575287 z"
   id="path1251"
   inkscape:export-filename="C:\Users\thier\Ergo\SAFEW\public\images\safew_icon_128.png"
   inkscape:export-xdpi="12.538775"
   inkscape:export-ydpi="12.538775" /><path
   style="fill:#ffaaaa;stroke-width:0.0343388"
   d="M 3.1731591,5.9256688 C 2.6148931,5.7716502 2.0900373,5.2416082 1.9060276,4.6460165 1.5641471,3.5394379 2.2191825,2.3180264 3.2723041,2.0983891 c 0.2454901,-0.051199 15.8796499,-0.054004 16.1491069,-0.0029 0.435408,0.082582 0.857331,0.3717624 1.123837,0.7702622 0.321596,0.4808751 0.327052,0.5112722 0.340868,1.8990131 l 0.01205,1.2105082 -8.783732,-0.00307 C 5.1428666,5.9697676 3.2981992,5.9601665 3.1731571,5.9256688 Z"
   id="path1290"
   inkscape:export-filename="C:\Users\thier\Ergo\SAFEW\public\images\safew_icon_128.png"
   inkscape:export-xdpi="12.538775"
   inkscape:export-ydpi="12.538775" /><path
   style="fill:#ffffff;stroke-width:0.0344216"
   d="M 8.0033756,23.200657 C 6.6123641,22.637299 5.4619449,22.155276 5.4468885,22.129493 5.4318323,22.103711 4.9415089,20.971544 4.3572811,19.613566 l -1.0622325,-2.46905 1.0119645,-2.542344 1.0119644,-2.542343 2.5034954,-1.07295 c 1.3769227,-0.590122 2.5344741,-1.0715526 2.5723351,-1.0698449 0.03786,0.00171 1.191489,0.4548089 2.563615,1.0068909 l 2.494774,1.003786 1.081213,2.524121 1.081212,2.524121 -1.011705,2.53908 -1.011704,2.539079 -2.512653,1.078651 c -1.381958,0.593258 -2.520397,1.081695 -2.529862,1.085416 -0.0095,0.0037 -1.1553103,-0.454164 -2.5463224,-1.017522 z m 4.9212954,-3.303605 v -0.550454 l -1.701176,-0.0089 -1.701177,-0.0089 0.654482,-0.722892 c 0.359965,-0.39759 0.839636,-0.927613 1.065934,-1.177829 L 11.654186,16.97314 10.601115,15.853206 9.5480446,14.733273 h 1.6883134 1.688313 V 14.199656 13.666093 H 10.463648 8.0026257 v 0.525898 0.525897 l 1.0864666,1.127987 1.0864667,1.127987 -0.2395209,0.265221 C 9.8043016,17.384954 9.3161505,17.922548 8.851258,18.433735 l -0.8452592,0.929432 -0.00169,0.542169 -0.00169,0.542169 h 2.4610222 2.461023 z"
   id="path1535" /><path
   style="fill:#ffffff;stroke-width:0.0344216"
   d="M 8.0026257,23.201498 C 5.9208475,22.358806 5.4655466,22.162931 5.4320171,22.095597 5.4096069,22.050592 4.919214,20.917915 4.3422552,19.578536 l -1.0490158,-2.435234 1.0127989,-2.54275 1.012799,-2.54275 2.5035656,-1.072213 C 9.1993641,10.395871 10.348015,9.9135027 10.37496,9.9136584 c 0.05588,3.229e-4 4.990139,1.9576416 5.049569,2.0030616 0.02136,0.01632 0.523025,1.161919 1.114811,2.545766 l 1.075974,2.516088 -0.691174,1.731454 c -0.380146,0.952299 -0.834946,2.095601 -1.010668,2.54067 l -0.319493,0.809217 -2.513535,1.075367 c -1.382445,0.591452 -2.521281,1.078725 -2.530746,1.082829 -0.0095,0.0041 -1.155648,-0.453371 -2.5470723,-1.016613 z m 4.9220453,-3.304446 v -0.550454 l -1.702475,-0.0089 -1.7024748,-0.0089 0.4375436,-0.484434 c 0.2406492,-0.266438 0.7204372,-0.796151 1.0661952,-1.17714 l 0.628652,-0.692707 -1.044413,-1.112016 -1.0444126,-1.112016 1.6806926,-0.0089 1.680692,-0.0089 V 14.199332 13.666093 H 10.463648 8.0026257 l 1.143e-4,0.524957 1.142e-4,0.524957 1.0873514,1.128477 1.0873514,1.128478 -0.2231696,0.248459 C 9.8316379,17.358073 9.3431095,17.89587 8.8687627,18.416524 l -0.8624485,0.946643 -0.00183,0.542169 -0.00183,0.542169 h 2.4610218 2.461023 z"
   id="path1574" /></svg>

<?xml version="1.0" encoding="UTF-8"?>
<!-- Svg Vector Icons : http://www.onlinewebfonts.com/icon -->
<svg width="28" height="28" enable-background="new 0 0 1000 1000" version="1.1" viewBox="0 0 28 28" xml:space="preserve" xmlns="http://www.w3.org/2000/svg">
<g transform="matrix(.028569 0 0 .032649 -.28569 -2.3246)" fill="#333"><path d="m928.3 500v-119.6c0-68.2-55.1-124.1-123-125.3v-60.6c0-67.8-56.4-123.3-125.4-123.3h-544.5c-69 0-125.4 55.4-125.4 123.2v1.8 607.2c0 68.9 56.4 125.4 125.4 125.4h667.6c68.9 0 125.4-56.4 125.4-125.4v-119.9c34-0.5 61.7-28.5 61.7-62.7v-58.3c-0.1-34-27.8-62-61.8-62.5zm-1 120.8-0.1 0.1h-181.1l-0.1-0.1v-58l0.1-0.1h181.1l0.1 0.1zm-836.5-468.7c12-11.8 27.8-18.2 44.6-18.2h544.4c16.8 0 32.7 6.5 44.6 18.2 11.7 11.5 18.1 26.5 18.1 42.4v60.5h-607.1c-16.8 0-32.7-6.5-44.6-18.2-11.7-11.5-18.1-26.5-18.1-42.4 0-15.8 6.4-30.9 18.1-42.3zm756.4 695.6c-11.9 11.9-27.6 18.5-44.2 18.5h-667.6c-16.6 0-32.3-6.6-44.2-18.5s-18.5-27.6-18.5-44.2v-502.4c18.5 10.6 39.9 16.6 62.7 16.6h667.6c16.6 0 32.3 6.6 44.2 18.5s18.5 27.6 18.5 44.2v119.6h-119.7c-34.5 0-62.7 28.2-62.7 62.7v58.3c0 34.5 28.2 62.7 62.7 62.7h119.7v119.9c-0.1 16.5-6.6 32.2-18.5 44.1z" fill="#333"/></g>
<style type="text/css">
	.st0{fill-rule:evenodd;clip-rule:evenodd;}
</style><g id="main" transform="matrix(.27836 0 0 .27863 2.3263 8.9145)" fill="#333">
	<g transform="translate(-70,-35)" fill="#333">
		<g transform="translate(70,34)" fill="#333">
			<g transform="translate(0 .83028)" fill="#333">
				<path class="st0" d="m11.2 47.8 18.3 7.4 18.2-7.8 7.3-18.3-7.8-18.2-18.3-7.3-18.2 7.8-7.3 18.3zm18.3 10.8c-0.2 0-0.4 0-0.6-0.1l-19.6-7.9c-0.4-0.2-0.7-0.5-0.9-0.9l-8.3-19.4c-0.2-0.4-0.2-0.8 0-1.3l7.9-19.5c0.2-0.4 0.5-0.7 0.9-0.9l19.4-8.3c0.4-0.2 0.8-0.2 1.3 0l19.6 7.9c0.3 0.1 0.6 0.4 0.8 0.8l8.3 19.4c0.2 0.4 0.2 0.8 0 1.3l-7.9 19.6c-0.2 0.4-0.5 0.7-0.9 0.9l-19.4 8.3c-0.1 0.1-0.4 0.1-0.6 0.1z"/>
				<polygon class="st0" points="28.3 29.1 20.5 21 20.5 17.3 38 17.3 38 21 25.8 21 33.4 29.1 25.6 37.7 38 37.7 38 41.5 20.5 41.5 20.5 37.7"/>
			</g>
		</g>
	</g>
</g><g fill="#faa" stroke-width=".034339"><path d="m3.1725 25.878c-0.45294-0.12535-0.89898-0.51617-1.1242-0.98498-0.26457-0.55083-0.24564 0.14863-0.24564-9.0801 0-4.5448 0.011589-8.258 0.025753-8.2515 0.014164 0.00643 0.12228 0.062007 0.24027 0.1235 0.25264 0.13168 0.49088 0.22307 0.79843 0.30628 0.20982 0.056768 0.81979 0.061469 10.181 0.078458l9.9578 0.018071 0.19657 0.07941c0.42922 0.17339 0.79722 0.53548 1.0123 0.99601 0.20859 0.4467 0.21615 0.54431 0.21615 2.7909v2.0231h-1.7667c-1.1571 0-1.8295 0.01309-1.9486 0.03795-0.70647 0.14734-1.3137 0.81335-1.4526 1.5933-0.06901 0.38741-0.06901 2.3941 0 2.7815 0.13893 0.77992 0.74614 1.4459 1.4526 1.5933 0.11918 0.02486 0.79152 0.03795 1.9486 0.03795h1.7667v2.0231c0 2.2975-0.0059 2.367-0.24332 2.8486-0.19241 0.39036-0.49778 0.7002-0.87086 0.8836l-0.27291 0.13416-9.8565 0.0057c-7.8965 0.0045-9.888-3e-3 -10.015-0.03812zm10.229-1.8435c1.504-0.64458 2.763-1.1893 2.7977-1.2105 0.03474-0.0212 0.09157-0.08491 0.1263-0.14157 0.12873-0.21004 2.276-5.5982 2.2786-5.7177 3e-3 -0.14036-2.3417-5.6553-2.4437-5.7475-0.08227-0.07447-5.5854-2.2925-5.739-2.3131-0.10098-0.013546-0.57129 0.17662-2.9018 1.1733-1.9392 0.82937-2.8091 1.2177-2.8731 1.2826-0.12372 0.12534-2.3439 5.6008-2.3422 5.7764 7.594e-4 0.07965 0.39254 1.0354 1.1614 2.8331 0.63813 1.4921 1.1885 2.7593 1.2231 2.8159 0.034576 0.05666 0.09851 0.12495 0.14207 0.15175 0.043565 0.0268 1.3153 0.54789 2.8262 1.158 1.9094 0.77102 2.7871 1.1096 2.8785 1.1103 0.09787 7.6e-4 0.83074-0.29866 2.866-1.1709z"/><path d="m21.032 16.999v-0.9272h5.1506v1.8544h-5.1506z"/><path d="m3.1732 5.9257c-0.55827-0.15402-1.0831-0.68406-1.2671-1.2797-0.34188-1.1066 0.31315-2.328 1.3663-2.5476 0.24549-0.051199 15.88-0.054004 16.149-0.0029 0.43541 0.082582 0.85733 0.37176 1.1238 0.77026 0.3216 0.48088 0.32705 0.51127 0.34087 1.899l0.01205 1.2105-8.7837-0.00307c-6.9716-0.002435-8.8162-0.012036-8.9413-0.046534z"/></g><path d="m8.0034 23.201c-1.391-0.56336-2.5414-1.0454-2.5565-1.0712-0.015056-0.025782-0.50538-1.1579-1.0896-2.5159l-1.0622-2.469 2.0239-5.0847 2.5035-1.073c1.3769-0.59012 2.5345-1.0716 2.5723-1.0698 0.03786 0.00171 1.1915 0.45481 2.5636 1.0069l2.4948 1.0038 2.1624 5.0482-2.0234 5.0782-2.5127 1.0787c-1.382 0.59326-2.5204 1.0817-2.5299 1.0854-0.0095 0.0037-1.1553-0.45416-2.5463-1.0175zm4.9213-3.3036v-0.55045l-3.4024-0.0178 0.65448-0.72289c0.35996-0.39759 0.83964-0.92761 1.0659-1.1778l0.41145-0.45494-2.1061-2.2399h3.3766v-1.0672h-4.922v1.0518l2.1729 2.256-0.23952 0.26522c-0.13174 0.14587-0.61989 0.68346-1.0848 1.1947l-0.84526 0.92943-0.00338 1.0843h4.922z" fill="#fff" stroke-width=".034422"/><path d="m8.0026 23.201c-2.0818-0.84269-2.5371-1.0386-2.5706-1.1059-0.02241-0.045005-0.5128-1.1777-1.0898-2.5171l-1.049-2.4352 2.0256-5.0855 2.5036-1.0722c1.377-0.58972 2.5256-1.0721 2.5526-1.0719 0.05588 3.229e-4 4.9901 1.9576 5.0496 2.0031 0.02136 0.01632 0.52302 1.1619 1.1148 2.5458l1.076 2.5161-0.69117 1.7315c-0.38015 0.9523-0.83495 2.0956-1.0107 2.5407l-0.31949 0.80922-2.5135 1.0754c-1.3824 0.59145-2.5213 1.0787-2.5307 1.0828-0.0095 0.0041-1.1556-0.45337-2.5471-1.0166zm4.922-3.3044v-0.55045l-3.4049-0.0178 0.43754-0.48443c0.24065-0.26644 0.72044-0.79615 1.0662-1.1771l0.62865-0.69271-2.0888-2.224 3.3614-0.0178v-1.0666h-4.922l1.143e-4 0.52496 1.142e-4 0.52496 2.1747 2.257-0.22317 0.24846c-0.12275 0.13665-0.61128 0.67445-1.0856 1.1951l-0.86245 0.94664-0.00366 1.0843h4.922z" fill="#fff" stroke-width=".034422"/></svg>
